Origami/16x16/apps/retroarch.svg

<svg width="16" height="16" version="1" xmlns="http://www.w3.org/2000/svg">
 <rect transform="matrix(0,-1,-1,0,0,0)" x="-16" y="-16" width="16" height="16" rx=".8" ry=".8" style="fill:#cccccc"/>
 <path d="m5 4 1.5 2h-2.5l-0.2492188 1h-1.1507812l0.4-2h-1l-0.8 4h0.8 1.3l-0.3 1h2l-1.5 2h1.5l1.5-2h3l1.5 2h1.5l-1.5-2h2l-0.3-1h2.1l-0.8-4h-1l0.4 2h-1.150781l-0.249219-1h-2.5l1.5-2h-1l-1.5 2h-1l-1.5-2z" style="fill:#565656"/>
 <path d="m5 7v1h1v-1h-1z" style="fill:#ffffff"/>
 <path d="m10 7v1h1v-1h-1z" style="fill:#ffffff"/>
</svg>

<svg xmlns="http://www.w3.org/2000/svg" width="16" height="16" version="1">
 <rect style="fill:#cccccc" width="16" height="16" x="-16" y="-16" rx=".8" ry=".8" transform="matrix(0,-1,-1,0,0,0)"/>
 <path style="fill:#565656" d="M 5,4 6.5,6 4,6 3.7507812,7 2.6,7 3,5 2,5 1.2,9 2,9 3.3,9 3,10 l 2,0 -1.5,2 1.5,0 1.5,-2 3,0 1.5,2 1.5,0 L 11,10 13,10 12.7,9 14.8,9 14,5 13,5 13.4,7 12.249219,7 12,6 9.5,6 11,4 10,4 8.5,6 7.5,6 6,4 Z"/>
 <path style="fill:#ffffff" d="M 5,7 5,8 6,8 6,7 5,7 Z"/>
 <path style="fill:#ffffff" d="m 10,7 0,1 1,0 0,-1 -1,0 z"/>
</svg>
